bundles/org.openhab.ui.habpanel/web/assets/icons/smarthome-set/drop.svg

<?xml version="1.0" encoding="UTF-8" standalone="no"?>
<svg width="32px" height="32px" viewBox="0 0 32 32" version="1.1" xmlns="http://www.w3.org/2000/svg" xmlns:xlink="http://www.w3.org/1999/xlink" xmlns:sketch="http://www.bohemiancoding.com/sketch/ns">
    <!-- Generator: Sketch 3.3.2 (12043) - http://www.bohemiancoding.com/sketch -->
    <title>drop</title>
    <desc>Created with Sketch.</desc>
    <defs></defs>
    <g id="flatten" stroke="none" stroke-width="1" fill="none" fill-rule="evenodd" sketch:type="MSPage">
        <g id="z-copy" sketch:type="MSArtboardGroup" transform="translate(-36.000000, -4.000000)" fill="#000000">
            <g id="drop" sketch:type="MSLayerGroup" transform="translate(36.000000, 4.000000)">
                <path d="M4,20 C4,13.7372206 9.31149107,10.9606699 15.0029824,1.68773079 C15.5,1 16.5,1 17.0240493,1.73848329 C22.7239959,11.0422428 28,13.7458429 28,20 C28,26.627417 22.627417,32 16,32 C9.372583,32 4,26.627417 4,20 Z M14.9662304,5.01303063 C12.6849824,7.94803148 7.55258291,15.1489689 7.43611882,15.3380026 C6.44520133,16.9463678 6,18.343598 6,20 C6,25.5228475 10.4771525,30 16,30 C21.5228475,30 26,25.5228475 26,20 C26,18.34381 25.5574243,16.9556938 24.5697394,15.3573542 C24.4844847,15.2193893 19.3264043,7.97081698 17.0502563,5.01835622 C16.4935872,4.29628389 15.5249676,4.2941722 14.9662304,5.01303063 Z M16,27.5447247 C16,28.0447247 15.2619671,28.0225103 14.9257293,27.9794225 C11.3214673,27.5175477 8.46745417,24.6572016 8.01523409,21.0499283 C7.98381871,20.7993338 7.95268975,20 8.45268973,20 C8.95268972,20 9.03600925,21.1280442 9.03600925,21.1280442 C9.50185782,24.1265527 11.8708617,26.4955566 14.8693702,26.9614051 C14.8693702,26.9614051 16,27.0447247 16,27.5447247 Z" sketch:type="MSShapeGroup"></path>
            </g>
        </g>
    </g>
</svg>

<svg width="32" height="32" xmlns="http://www.w3.org/2000/svg"><path d="M4 20c0-6.263 5.311-9.04 11.003-18.312C15.5 1 16.5 1 17.024 1.738 22.724 11.042 28 13.746 28 20c0 6.627-5.373 12-12 12S4 26.627 4 20ZM14.966 5.013c-2.281 2.935-7.413 10.136-7.53 10.325C6.446 16.946 6 18.344 6 20c0 5.523 4.477 10 10 10s10-4.477 10-10c0-1.656-.443-3.044-1.43-4.643-.086-.138-5.244-7.386-7.52-10.339-.556-.722-1.525-.724-2.084-.005ZM16 27.545c0 .5-.738.478-1.074.434a8.004 8.004 0 0 1-6.91-6.93C7.983 20.8 7.952 20 8.452 20s.583 1.128.583 1.128a7.005 7.005 0 0 0 5.833 5.833s1.131.084 1.131.584Z" fill="#000" fill-rule="evenodd"/></svg>
